X:732
T:Reel 732
M:4/4
K:Dmaj
L:1/8
 (3ABc |dcAc BAGF|EFGE AABc|dBcA BGAF|GBAF D2:|FE|DdcB BAFD|Eeed cBAc|ddcA BGAF|GEEF G2Bc|d2cB BAFD|Eee^d e2Bc|dcdB cdce|dBAF E2|
